usr/share/icons/biglinux-icons-material/scalable/apps/mega.svg

<?xml version="1.0" encoding="UTF-8" standalone="no"?>
<svg
   width="24"
   height="24"
   viewBox="0 0 6.349875 6.349875"
   version="1.1"
   id="svg1"
   sodipodi:docname="mega.svg"
   inkscape:version="1.3 (0e150ed6c4, 2023-07-21)"
   xmlns:inkscape="http://www.inkscape.org/namespaces/inkscape"
   xmlns:sodipodi="http://sodipodi.sourceforge.net/DTD/sodipodi-0.dtd"
   xmlns="http://www.w3.org/2000/svg"
   xmlns:svg="http://www.w3.org/2000/svg">
  <defs
     id="defs1">
    <radialGradient
       id="paint0_radial_1_41"
       cx="0"
       cy="0"
       r="1"
       gradientUnits="userSpaceOnUse"
       gradientTransform="matrix(0,2.9103594,-2.9103594,0,3.1749342,0.26458205)">
      <stop
         stop-color="#F08C85"
         id="stop283"
         offset="0"
         style="stop-color:#f98f8f;stop-opacity:1;" />
      <stop
         offset="1"
         stop-color="#E84F43"
         id="stop285"
         style="stop-color:#e43f3f;stop-opacity:1;" />
    </radialGradient>
  </defs>
  <sodipodi:namedview
     id="namedview1"
     pagecolor="#ffffff"
     bordercolor="#000000"
     borderopacity="0.25"
     inkscape:showpageshadow="2"
     inkscape:pageopacity="0.0"
     inkscape:pagecheckerboard="0"
     inkscape:deskcolor="#d1d1d1"
     inkscape:zoom="6.3359375"
     inkscape:cx="20.833539"
     inkscape:cy="31.802713"
     inkscape:window-width="2560"
     inkscape:window-height="998"
     inkscape:window-x="0"
     inkscape:window-y="0"
     inkscape:window-maximized="1"
     inkscape:current-layer="svg1" />
  <path
     fill-rule="evenodd"
     clip-rule="evenodd"
     d="m 2.5388991,0.29463547 c 0.031707,3.3603e-4 0.062015,-0.003701 0.090922,-0.0121177 0.3798837,-0.0248846 0.759712,-0.0238753 1.1395405,0.003029 0.3444015,0.026834 0.6777965,0.10155612 1.0001586,0.2241669 C 5.3054495,0.73035599 5.6721813,1.1130576 5.8696624,1.6578135 5.9826109,1.9857923 6.0492846,2.3230554 6.06971,2.6695972 6.09794,3.1047489 6.087834,3.538948 6.03939,3.9721948 6.0031425,4.2766977 5.9243248,4.5695327 5.8029893,4.8506735 5.5779391,5.3381587 5.2132447,5.674411 4.7089059,5.8594304 4.3002119,5.9975138 3.8799559,6.0702199 3.4481115,6.0775223 2.9623726,6.1027898 2.4815098,6.0664365 2.0054914,5.9684896 1.1293197,5.7733102 0.58883949,5.239127 0.38405282,4.3659928 0.29714453,3.9729356 0.2577483,3.5750894 0.26585314,3.1724544 0.25615333,2.7443141 0.30161244,2.3222299 0.40223746,1.9062126 0.61691654,1.0898224 1.1351696,0.58393049 1.9569995,0.38854219 2.1484984,0.34172511 2.3424659,0.31042282 2.5388991,0.29463547 Z"
     fill="url(#paint0_radial_1_41)"
     id="path279"
     style="fill:url(#paint0_radial_1_41);stroke-width:0.264578" />
  <path
     d="M 3.1747567,1.4551797 A 1.7195772,1.7195772 0 0 0 1.4551801,3.175118 1.7195772,1.7195772 0 0 0 3.1747567,4.8946952 1.7195772,1.7195772 0 0 0 4.8946949,3.1747569 1.7195772,1.7195772 0 0 0 3.1747567,1.4551797 Z M 2.1925539,2.4377436 H 2.6836553 L 3.1747567,3.1747569 3.6662193,2.4381047 H 4.1573205 V 3.9121312 H 3.6662193 V 3.2978933 L 3.4206686,3.6662194 H 2.9295671 L 2.6836553,3.2978933 V 3.9117701 H 2.1925539 Z"
     color="#bebebe"
     fill="#ffffff"
     id="path2"
     style="stroke-width:1" />
</svg>

<svg xmlns="http://www.w3.org/2000/svg" width="24" height="24" viewBox="0 0 6.35 6.35"><defs><radialGradient id="a" cx="0" cy="0" r="1" gradientTransform="rotate(90 1.455 1.72) scale(2.91036)" gradientUnits="userSpaceOnUse"><stop offset="0" stop-color="#F08C85" style="stop-color:#f98f8f;stop-opacity:1"/><stop offset="1" stop-color="#E84F43" style="stop-color:#e43f3f;stop-opacity:1"/></radialGradient></defs><path fill="url(#a)" fill-rule="evenodd" d="M2.539.295a.312.312 0 0 0 .09-.012c.38-.025.76-.024 1.14.003.345.026.678.101 1 .224.536.22.903.603 1.1 1.148.114.328.18.665.2 1.012.029.435.019.869-.03 1.302a3.143 3.143 0 0 1-.236.879 1.87 1.87 0 0 1-1.094 1.008c-.409.139-.829.211-1.26.219a5.668 5.668 0 0 1-1.444-.11C1.13 5.773.59 5.24.385 4.366a5.04 5.04 0 0 1-.12-1.194c-.009-.428.037-.85.137-1.266C.617 1.09 1.135.584 1.957.39c.191-.047.385-.079.582-.094Z" clip-rule="evenodd" style="fill:url(#a);stroke-width:.264578"/><path fill="#fff" d="M3.175 1.455a1.72 1.72 0 0 0-1.72 1.72 1.72 1.72 0 0 0 1.72 1.72 1.72 1.72 0 0 0 1.72-1.72 1.72 1.72 0 0 0-1.72-1.72Zm-.982.983h.49l.492.737.491-.737h.491v1.474h-.49v-.614l-.246.368H2.93l-.246-.368v.614h-.491Z" color="#bebebe" style="stroke-width:1"/></svg>
